X:98
T:'Twas On That Dark, That Doleful Night
%%stretchlast false
M:4/4
L:1/4
K:Eb clef=C1
"^vi"[C,G,CE]2 [C,G,CE] "^V"[B,,B,DF] | "^I"[E,B,EG]3 "^IV"[A,,A,Ec] | "^I²"[B,,G,EB] "^iii¹"[B,,G,B,B] "^vi"[B,,G,CA] "^V7"[B,,F,DA] | "^I"[E,G,EG]4 | "^vi"[C,E,EG]2 "^Imaj7²"[B,,E,DG] "^IV"[A,,E,CA] | "^I¹"[G,,E,B,B] [G,,F,B,B] "^vi"[C,G,E] "^IV¹"[C,A,E] | "^I²"[B,,B,EG]2 "^V"[B,,B,DF] "^V7"[B,,A,DF] | "^I"[E,G,E]3 [E,G,B,G] | [E,G,B,E]3 "^vi¹"[E,G,CG] | "^viiø7"[D,A,CF]2 "^V/vi"[G,,G,=B,G]2 | "^vi"[C,G,CE]2 "^vii°¹"[F,,A,DF] "^ii"[F,,A,CF] | "^V/vi"[G,,G,=B,D]4 | "^vi"[C,C]2 [C,C] [C,C] | "^iii"[G,G]3 "^ii"[F,,A,CF] | "^vi²"[G,,G,CE]2 "^I¹"[G,,F,B,E]2 | "^vi"[C,E,C]4 |]
